app/Resources/icons/clipboard.svg

<svg xmlns="http://www.w3.org/2000/svg" viewBox="0 0 24 24"><path d="M6 4V8H18V4H20.0066C20.5552 4 21 4.44495 21 4.9934V21.0066C21 21.5552 20.5551 22 20.0066 22H3.9934C3.44476 22 3 21.5551 3 21.0066V4.9934C3 4.44476 3.44495 4 3.9934 4H6ZM8 2H16V6H8V2Z"></path></svg>

<svg xmlns="http://www.w3.org/2000/svg" viewBox="0 0 24 24">
    <g>
        <path fill="none" d="M0 0h24v24H0z"/>
        <path d="M6 4v4h12V4h2.007c.548 0 .993.445.993.993v16.014a.994.994 0 0 1-.993.993H3.993A.994.994 0 0 1 3 21.007V4.993C3 4.445 3.445 4 3.993 4H6zm2-2h8v4H8V2z"/>
    </g>
</svg>
